X: 158
%
U:~=!turn!
T: Dunie Mains
C:
O:Scotland
B:Keith Norman MacDonald : "The Skye collection of the best reels & strathspeys extant" : 1887
Z:Ralph Palmer
R:Strathspey
M:C
L:1/8
K:G
(e/f/) | {/f}g<dTd>c B<GG>B | A<aTa>g (f/g/)(a/f/) {/^c}d(e/f/) | {/f}g<dTd>c B<GG>B | E>A (G/F/)(E/D/) {/F}G2 G ::
D | GGB>G F<AA>B | GGB>d {/f}g>dB>d | {/B}c>A (c/B/)(A/G/) (F<A)A>B | E>A (G/F/)(E/D/) {/F}G2 G :|


